X: 2
T: Chloe's Passion
R: slip jig
M: 9/8
L: 1/8
K: Ador
|: Ade fge f2 d | Ade fed ecc | Ade fge f2 d | ede gfe f2 d :|
|: GAA fed egg | GAA fed ecc | GAA fed egg | ede gfe f2 d :|


Tune 1756	Setting 1756

